X: 1545
T: From Shore to Shore
T: ua tra.g go tra.g.
R: reel
N: no source given
B: O'Neill's 1850 "Music of Ireland" #1545
Z: transcribed by John B. Walsh, walsh@math.ubc.ca 8/23/96
Z: Compacted via repeats and multiple endings [JC]
M: C|
L: 1/8
K: G
|: Bdd^c egdg | ((3efg) (dg) fafd | Bdd^c egdg |1 cAFD (BG)G2 :|2 fdcA BGG2 |]
|: bgfg egdg | bgfg (fa)a2 |1 bgfg egdg | cAFD (BG)G2 :|2 ((3bag) ((3agf) ((3gfe) ((3dcB) | cAFD (BG)G2 |]
